images/facebook.svg

<svg viewBox="-110 1 511 511.99996" xmlns="http://www.w3.org/2000/svg"><path d="m180 512h-81.992188c-13.695312 0-24.835937-11.140625-24.835937-24.835938v-184.9375h-47.835937c-13.695313 0-24.835938-11.144531-24.835938-24.835937v-79.246094c0-13.695312 11.140625-24.835937 24.835938-24.835937h47.835937v-39.683594c0-39.347656 12.355469-72.824219 35.726563-96.804688 23.476562-24.089843 56.285156-36.820312 94.878906-36.820312l62.53125.101562c13.671875.023438 24.792968 11.164063 24.792968 24.835938v73.578125c0 13.695313-11.136718 24.835937-24.828124 24.835937l-42.101563.015626c-12.839844 0-16.109375 2.574218-16.808594 3.363281-1.152343 1.308593-2.523437 5.007812-2.523437 15.222656v31.351563h58.269531c4.386719 0 8.636719 1.082031 12.289063 3.121093 7.878906 4.402344 12.777343 12.726563 12.777343 21.722657l-.03125 79.246093c0 13.6875-11.140625 24.828125-24.835937 24.828125h-58.46875v184.941406c0 13.695313-11.144532 24.835938-24.839844 24.835938zm-76.8125-30.015625h71.632812v-193.195313c0-9.144531 7.441407-16.582031 16.582032-16.582031h66.726562l.027344-68.882812h-66.757812c-9.140626 0-16.578126-7.4375-16.578126-16.582031v-44.789063c0-11.726563 1.191407-25.0625 10.042969-35.085937 10.695313-12.117188 27.550781-13.515626 39.300781-13.515626l36.921876-.015624v-63.226563l-57.332032-.09375c-62.023437 0-100.566406 39.703125-100.566406 103.609375v53.117188c0 9.140624-7.4375 16.582031-16.578125 16.582031h-56.09375v68.882812h56.09375c9.140625 0 16.578125 7.4375 16.578125 16.582031zm163.0625-451.867187h.003906zm0 0"/></svg>

<?xml version="1.0" encoding="UTF-8"?>
<svg width="292px" height="512px" viewBox="0 0 292 512" version="1.1" xmlns="http://www.w3.org/2000/svg" xmlns:xlink="http://www.w3.org/1999/xlink">
    <!-- Generator: Sketch 39.1 (31720) - http://www.bohemiancoding.com/sketch -->
    <title>Untitled</title>
    <desc>Created with Sketch.</desc>
    <defs></defs>
    <g id="Page-1" stroke="none" stroke-width="1" fill="none" fill-rule="evenodd">
        <path d="M180,512 L98.007812,512 C84.3125,512 73.171875,500.859375 73.171875,487.164062 L73.171875,302.226562 L25.335938,302.226562 C11.640625,302.226562 0.5,291.082031 0.5,277.390625 L0.5,198.144531 C0.5,184.449219 11.640625,173.308594 25.335938,173.308594 L73.171875,173.308594 L73.171875,133.625 C73.171875,94.277344 85.527344,60.800781 108.898438,36.820312 C132.375,12.730469 165.183594,0 203.777344,0 L266.308594,0.101562 C279.980469,0.125 291.101562,11.265625 291.101562,24.9375 L291.101562,98.515625 C291.101562,112.210938 279.964844,123.351562 266.273438,123.351562 L224.171875,123.367188 C211.332031,123.367188 208.0625,125.941406 207.363281,126.730469 C206.210938,128.039062 204.839844,131.738281 204.839844,141.953125 L204.839844,173.304688 L263.109375,173.304688 C267.496094,173.304688 271.746094,174.386719 275.398438,176.425781 C283.277344,180.828125 288.175781,189.152344 288.175781,198.148438 L288.144531,277.394531 C288.144531,291.082031 277.003906,302.222656 263.308594,302.222656 L204.839844,302.222656 L204.839844,487.164062 C204.839844,500.859375 193.695312,512 180,512 L180,512 Z M103.1875,481.984375 L174.820312,481.984375 L174.820312,288.789062 C174.820312,279.644531 182.261719,272.207031 191.402344,272.207031 L258.128906,272.207031 L258.15625,203.324219 L191.398438,203.324219 C182.257812,203.324219 174.820312,195.886719 174.820312,186.742188 L174.820312,141.953125 C174.820312,130.226562 176.011719,116.890625 184.863281,106.867188 C195.558594,94.75 212.414062,93.351562 224.164062,93.351562 L261.085938,93.335938 L261.085938,30.109375 L203.753906,30.015625 C141.730469,30.015625 103.1875,69.71875 103.1875,133.625 L103.1875,186.742188 C103.1875,195.882812 95.75,203.324219 86.609375,203.324219 L30.515625,203.324219 L30.515625,272.207031 L86.609375,272.207031 C95.75,272.207031 103.1875,279.644531 103.1875,288.789062 L103.1875,481.984375 Z M266.25,30.117188 L266.253906,30.117188 L266.25,30.117188 Z" id="Shape" fill="#FFFFFF"></path>
    </g>
</svg>
